<?xml version="1.0" encoding="UTF-8"?>
<map version="1.10" tiledversion="1.11.2" orientation="orthogonal" renderorder="right-down" width="50" height="50" tilewidth="32" tileheight="32" infinite="0" nextlayerid="2" nextobjectid="1">
 <editorsettings>
  <export target="desert.tmj" format="json"/>
 </editorsettings>
 <tileset firstgid="1" source="../assets/tilesets/tiles/ground/desert_water.tsx"/>
 <tileset firstgid="37" source="desert.tsx"/>
 <layer id="1" name="Tile Layer 1" width="50" height="50">
  <data encoding="csv">
38,38,38,38,38,38,38,38,38,38,38,38,38,38,38,38,38,38,38,38,38,38,38,38,38,38,38,38,38,38,38,38,38,38,38,38,38,38,38,38,38,38,38,38,38,38,38,38,38,38,
38,38,38,38,38,38,38,37,38,38,38,38,38,38,38,38,38,38,38,38,37,37,37,37,37,37,37,37,37,38,38,38,38,38,38,38,38,38,38,38,38,38,38,38,38,38,38,38,38,38,
38,1,3,38,38,38,38,37,37,37,37,37,38,38,38,38,37,37,38,38,38,38,38,37,37,37,37,38,38,38,38,38,38,38,38,38,38,38,38,38,38,38,38,38,38,38,1,2,3,38,
38,25,27,38,38,38,38,38,38,38,38,38,38,38,37,37,37,38,38,38,38,38,38,38,38,38,38,38,38,38,38,38,38,38,38,38,1,3,38,38,38,38,38,38,38,38,13,14,15,38,
38,38,38,38,38,38,1,2,3,38,38,38,38,37,38,38,38,38,38,38,1,2,3,38,38,38,38,38,38,38,38,38,38,38,38,38,25,27,38,38,38,38,38,38,38,38,25,26,27,38,
38,38,38,38,38,38,25,26,27,38,38,38,38,37,37,38,38,38,38,38,13,14,15,38,38,38,38,38,38,38,38,38,38,38,38,38,38,38,38,38,38,38,38,38,38,38,38,38,38,38,
38,38,38,38,38,38,38,38,38,38,38,38,38,37,37,38,38,38,38,38,25,26,27,38,38,38,37,37,37,38,38,38,38,38,38,38,38,38,38,38,38,38,38,38,38,38,38,38,38,38,
38,38,38,38,38,38,38,38,38,38,38,38,38,37,37,38,38,38,38,38,38,38,38,38,38,37,37,38,38,38,38,38,38,38,38,38,1,2,3,38,38,38,38,38,38,38,38,38,38,38,
38,38,1,3,38,38,38,38,38,38,38,38,38,37,38,38,38,38,38,38,38,38,38,38,37,37,38,38,38,38,38,38,38,38,38,38,25,26,27,38,38,38,38,38,38,38,38,38,38,38,
38,38,25,27,38,38,38,38,38,38,38,38,38,37,38,38,38,38,38,38,38,38,38,37,37,38,38,38,38,38,38,38,38,38,38,38,38,38,38,38,38,38,38,38,38,38,38,38,40,38,
38,38,38,38,38,38,38,38,1,2,3,38,38,37,37,38,38,38,38,38,38,38,37,37,38,38,38,38,38,38,38,38,38,38,38,38,38,38,38,38,38,38,38,38,38,38,38,38,38,40,
38,38,38,38,38,38,38,38,13,14,15,38,38,38,37,37,38,38,38,38,38,38,37,38,38,38,38,38,38,38,38,38,38,38,38,40,40,38,38,38,38,38,38,38,38,38,38,38,38,40,
38,38,38,38,38,38,38,38,25,26,27,38,38,38,37,37,38,1,2,3,38,38,37,38,38,38,38,38,38,38,38,38,38,38,40,40,38,38,38,38,38,38,38,38,38,1,3,38,38,40,
38,38,38,38,38,38,38,38,38,38,38,38,38,38,37,38,38,25,26,27,38,38,37,38,38,38,38,38,1,2,3,38,38,40,40,38,38,38,40,38,38,38,38,38,38,25,27,38,38,40,
38,38,38,38,38,38,38,38,38,38,38,37,37,37,38,38,38,38,38,38,38,37,37,38,38,38,38,38,13,14,15,38,38,38,38,38,38,38,40,40,38,38,38,38,38,38,38,38,38,40,
38,38,38,38,38,38,38,38,37,37,37,37,37,37,38,38,38,38,38,38,37,37,38,38,38,38,38,38,25,26,27,38,38,38,38,38,38,38,38,40,38,38,38,38,38,38,38,38,38,38,
38,38,38,38,38,38,38,37,37,38,37,37,37,38,38,38,38,38,38,37,37,38,38,38,38,38,38,38,38,38,38,40,38,38,38,38,38,38,38,38,38,40,40,38,38,38,38,40,40,38,
38,1,3,38,38,38,38,37,37,37,37,38,38,38,38,38,38,37,37,37,38,38,38,38,38,38,38,38,38,38,38,40,38,38,38,38,38,38,38,38,38,38,38,40,40,40,40,40,38,38,
38,25,27,38,38,38,38,37,38,38,38,37,37,37,37,37,37,38,38,38,38,38,1,3,38,38,38,38,38,38,38,40,38,38,38,38,38,38,38,38,38,38,38,38,38,38,38,38,38,38,
38,38,38,38,38,38,38,38,38,38,38,38,38,38,38,38,38,38,38,38,38,38,25,27,38,38,38,38,38,38,40,38,38,38,38,38,1,2,3,38,38,38,38,38,38,38,38,38,38,38,
38,38,38,38,38,38,38,38,38,37,38,38,38,38,38,38,38,38,38,38,38,38,38,38,38,38,38,38,38,40,40,38,38,38,38,38,25,26,27,38,38,38,38,38,38,38,38,38,38,38,
38,38,38,38,1,2,3,38,38,37,38,38,38,38,38,38,38,38,38,38,38,38,38,38,38,38,38,38,38,40,40,38,38,38,40,38,38,38,38,38,38,38,38,38,38,38,38,38,38,38,
38,38,38,38,25,26,27,38,38,37,38,1,3,38,38,38,38,38,38,38,38,38,38,38,38,38,38,38,38,38,38,38,38,38,40,40,38,38,38,38,38,38,38,38,1,2,3,38,38,38,
38,38,38,38,38,38,38,38,38,37,38,25,27,38,38,38,38,38,38,38,38,38,38,38,38,38,38,38,38,38,38,38,38,38,38,40,40,38,38,38,38,38,38,38,13,14,15,38,38,38,
38,38,38,38,38,38,38,38,38,37,38,38,38,38,38,38,38,38,38,38,38,38,38,38,38,38,38,38,38,38,38,38,38,38,38,38,38,38,40,38,38,38,38,38,25,26,27,38,38,38,
38,38,38,38,38,38,38,38,37,37,38,38,38,38,38,38,38,38,38,38,38,38,38,38,38,38,38,38,1,2,3,38,38,38,38,38,38,38,40,37,37,37,38,38,38,38,38,38,38,38,
38,38,38,37,38,38,37,37,37,38,38,38,38,38,38,38,38,38,38,38,38,38,38,38,38,38,38,38,13,14,15,38,38,38,40,38,38,38,38,38,37,38,38,38,38,38,38,38,38,38,
38,38,38,38,37,37,38,38,38,38,38,38,38,38,38,38,38,1,2,3,38,38,38,38,38,38,38,38,25,26,27,38,40,40,40,38,38,38,38,38,37,37,38,38,38,38,38,38,38,38,
38,38,38,38,38,37,38,38,38,38,38,38,38,38,38,38,38,25,26,27,38,38,38,38,38,38,38,38,38,38,38,40,38,38,38,38,38,38,38,38,38,38,38,38,38,38,38,38,38,38,
38,38,38,38,38,38,38,38,38,38,38,38,38,38,38,38,38,38,38,38,38,38,38,38,38,38,38,38,38,38,40,40,38,38,1,3,38,38,38,38,38,38,38,38,38,38,38,38,38,38,
38,38,38,38,38,38,38,38,38,38,38,38,38,38,38,38,38,38,38,38,38,38,38,38,38,38,38,38,38,40,40,38,38,38,25,27,38,38,38,38,38,38,38,38,38,38,1,3,38,38,
38,38,38,38,38,38,38,37,38,38,38,38,38,38,38,38,38,38,38,38,38,38,38,38,38,38,38,38,38,40,38,38,38,38,38,38,38,38,38,38,38,38,38,38,38,38,25,27,38,38,
38,38,38,38,38,38,38,37,38,1,2,3,38,38,38,38,38,38,38,38,38,38,38,38,38,38,38,38,38,40,40,38,38,38,38,38,38,38,38,1,2,3,38,38,38,38,38,38,38,38,
38,1,2,3,38,38,38,38,38,13,14,15,38,38,38,38,38,38,38,38,38,38,38,38,38,38,38,38,38,38,38,38,38,38,38,38,38,38,38,25,26,27,38,38,38,38,38,38,38,38,
38,13,14,15,38,38,38,38,38,25,26,27,38,38,38,38,38,38,38,1,3,38,38,38,38,1,2,3,38,38,38,37,40,37,38,38,38,38,38,38,38,38,38,38,38,38,37,38,38,38,
38,25,26,27,38,38,38,37,38,38,38,38,38,38,38,38,38,38,38,25,27,38,38,38,38,13,14,15,38,38,38,38,40,40,38,38,38,38,38,38,38,38,38,38,38,38,38,38,38,38,
38,38,38,38,38,38,38,37,38,38,38,38,38,38,38,38,38,38,38,38,38,38,38,38,38,25,26,27,38,38,38,38,38,37,38,38,38,38,38,38,38,38,38,38,38,38,38,38,38,38,
38,38,38,38,38,38,38,37,37,37,38,38,38,38,38,38,38,38,38,38,38,38,38,38,38,38,38,38,38,38,38,38,38,40,38,38,38,38,38,38,38,38,38,38,38,38,38,38,38,38,
40,40,38,38,38,38,38,38,38,38,38,38,38,38,38,38,38,38,38,38,38,38,38,38,38,38,38,38,38,38,38,38,38,37,40,38,38,38,38,38,38,38,38,38,38,38,38,38,38,38,
40,38,38,38,38,38,38,38,38,38,38,38,37,37,37,38,38,38,38,38,38,38,38,38,38,38,38,38,38,38,38,38,38,37,40,40,38,38,38,38,1,2,3,38,38,38,38,38,38,38,
40,38,38,40,40,40,40,40,38,38,38,38,38,38,37,37,37,37,37,38,37,37,38,38,38,38,38,38,38,38,38,38,37,38,38,40,40,38,38,38,13,14,15,38,38,38,38,38,38,38,
40,38,40,38,38,38,38,38,38,38,38,38,38,38,38,40,40,38,38,38,38,37,37,37,37,37,38,38,1,3,38,38,37,38,38,38,38,38,38,38,25,26,27,38,38,38,38,38,38,38,
38,38,40,38,38,38,38,38,38,40,38,38,38,40,40,38,40,40,40,40,38,38,38,38,38,37,37,38,25,27,38,38,37,38,38,38,38,38,40,40,38,38,38,38,38,38,38,38,38,38,
38,40,40,38,38,38,38,38,38,40,38,38,40,40,38,38,38,38,38,38,40,40,40,38,38,38,37,38,38,38,38,38,37,38,38,38,38,38,38,40,40,38,38,38,38,38,38,38,38,38,
38,40,38,38,1,2,3,38,38,40,38,38,40,38,38,38,38,38,38,38,38,38,38,38,40,38,37,38,38,38,38,38,38,38,38,38,38,38,38,38,40,38,38,38,38,38,38,38,38,38,
40,40,38,38,25,26,27,40,40,38,38,38,38,38,38,38,38,38,1,2,3,38,38,38,40,40,38,37,37,38,37,37,38,1,2,3,38,38,38,38,38,38,38,38,38,1,3,38,38,38,
38,38,38,38,38,38,40,40,38,38,38,40,38,38,38,38,38,38,13,14,15,38,38,38,38,40,38,38,37,37,37,38,40,25,26,27,38,38,38,38,40,40,38,38,38,25,27,38,38,38,
40,38,38,38,38,38,40,40,38,40,40,40,38,38,38,38,38,38,25,26,27,38,38,38,38,40,38,38,40,40,40,40,40,38,38,38,40,40,40,40,40,38,38,38,38,38,38,38,38,38,
40,38,38,38,38,38,38,40,40,40,38,38,38,38,38,38,38,38,38,38,38,38,38,38,38,38,38,38,38,38,38,38,38,38,38,38,38,38,38,38,38,38,38,38,38,38,38,38,38,38,
40,38,38,38,38,38,38,38,38,38,38,38,38,38,38,38,38,38,38,38,38,38,38,38,38,38,38,38,38,38,38,38,38,38,38,38,38,38,38,38,38,38,38,38,38,38,38,38,38,38
</data>
 </layer>
</map>
